symbols/web/security_update_warning/materialsymbolsrounded/security_update_warning_wght100gradN25_24px.svg

<svg xmlns="http://www.w3.org/2000/svg" height="24" width="24"><path d="M12 13.725q-.125 0-.212-.1-.088-.1-.088-.225V7.95q0-.125.088-.225.087-.1.212-.1.15 0 .238.1.087.1.087.225v5.45q0 .125-.1.225t-.225.1Zm0 2.5q-.2 0-.337-.125-.138-.125-.138-.35 0-.225.125-.35.125-.125.35-.125.225 0 .35.125.125.125.125.35 0 .2-.125.337-.125.138-.35.138Zm-4.15 5.35q-.6 0-1.025-.425-.425-.425-.425-1.025V3.85q0-.575.425-1 .425-.425 1.025-.425h8.325q.575 0 1 .425.425.425.425 1v16.275q0 .6-.425 1.025-.425.425-1 .425Zm-.8-2.95h9.925V5.375H7.05Zm0 .625v.875q0 .35.225.575.225.225.575.225h8.325q.35 0 .575-.225.225-.225.225-.575v-.875Zm0-14.525h9.925V3.85q0-.35-.225-.575-.225-.225-.575-.225H7.85q-.35 0-.575.225-.225.225-.225.575Zm0-1.675V4.725 3.05Zm0 17.875V19.25v1.675Z"/></svg>

<svg xmlns="http://www.w3.org/2000/svg" height="24" width="24"><path d="M12 13.725Q11.875 13.725 11.788 13.625Q11.7 13.525 11.7 13.4V7.95Q11.7 7.825 11.788 7.725Q11.875 7.625 12 7.625Q12.15 7.625 12.238 7.725Q12.325 7.825 12.325 7.95V13.4Q12.325 13.525 12.225 13.625Q12.125 13.725 12 13.725ZM12 16.225Q11.8 16.225 11.663 16.1Q11.525 15.975 11.525 15.75Q11.525 15.525 11.65 15.4Q11.775 15.275 12 15.275Q12.225 15.275 12.35 15.4Q12.475 15.525 12.475 15.75Q12.475 15.95 12.35 16.087Q12.225 16.225 12 16.225ZM7.85 21.575Q7.25 21.575 6.825 21.15Q6.4 20.725 6.4 20.125V3.85Q6.4 3.275 6.825 2.85Q7.25 2.425 7.85 2.425H16.175Q16.75 2.425 17.175 2.85Q17.6 3.275 17.6 3.85V20.125Q17.6 20.725 17.175 21.15Q16.75 21.575 16.175 21.575ZM7.05 18.625H16.975V5.375H7.05ZM7.05 19.25V20.125Q7.05 20.475 7.275 20.7Q7.5 20.925 7.85 20.925H16.175Q16.525 20.925 16.75 20.7Q16.975 20.475 16.975 20.125V19.25ZM7.05 4.725H16.975V3.85Q16.975 3.5 16.75 3.275Q16.525 3.05 16.175 3.05H7.85Q7.5 3.05 7.275 3.275Q7.05 3.5 7.05 3.85ZM7.05 3.05Q7.05 3.05 7.05 3.275Q7.05 3.5 7.05 3.85V4.725V3.85Q7.05 3.5 7.05 3.275Q7.05 3.05 7.05 3.05ZM7.05 20.925Q7.05 20.925 7.05 20.7Q7.05 20.475 7.05 20.125V19.25V20.125Q7.05 20.475 7.05 20.7Q7.05 20.925 7.05 20.925Z"/></svg>
